X:856
T:Reel 856
M:4/4
K:Ador
L:1/8
GF|EA,A,B, CB,CE|DB,G,A, B,CDB,|A,E,A,B, CB,CD|EAAB cBAG|EA,A,B, CEGE|DB,G,A, B,CDB,|A,EA,B, CB,CE|DB,G,B, A,2|A,D|EAAG AGAG|EDEF GEDB,|EAA^G AGAB|cBAB A2ED|EAAG AGAG|EFGF AEGD|EAAG E^FGE|DB,G,B, A,2|
